packages/kaspersky-hexa-ui-icons/src/iconsSVGs/24/TwoStepVerification1.svg

<svg width="24" height="24" viewBox="0 0 24 24" fill="none" xmlns="http://www.w3.org/2000/svg">
<path fill-rule="evenodd" clip-rule="evenodd" d="M4.00202 3C3.46704 3 3.02682 3.42104 3.00301 3.95549L4.00202 4C3.00301 3.95549 3.00302 3.95512 3.00301 3.95549L3.00294 3.95703L3.00286 3.95886L3.00268 3.96341L3.00222 3.97603L3.00117 4.01512C3.00047 4.04726 2.99989 4.09146 3.00002 4.1471C3.00028 4.25835 3.0034 4.41543 3.0142 4.6132C3.03578 5.00856 3.08809 5.56775 3.20998 6.24926C3.45369 7.61182 3.97674 9.4698 5.09316 11.4847C5.85447 12.8587 6.88973 14.3019 8.29497 15.7071C9.6308 17.0429 11.0343 18.0413 12.3856 18.7875C12.4765 18.8588 12.5769 18.9122 12.682 18.9476C13.8994 19.5909 15.0668 20.032 16.0949 20.3344C17.2179 20.6647 18.1789 20.8308 18.8654 20.9145C19.2089 20.9564 19.4845 20.9778 19.6784 20.9887C19.7753 20.9941 19.8519 20.9969 19.9064 20.9984C19.9336 20.9992 19.9554 20.9995 19.9714 20.9998L19.9911 21L19.9977 21L20.0011 21C20.0016 21 20.002 21 20.002 20L20.0011 21C20.5534 21 21.002 20.5523 21.002 20L21.0021 16.7808C21.0021 15.8631 20.3775 15.0631 19.4871 14.8405L16.7939 14.1672C16.1123 13.9968 15.3914 14.1965 14.8946 14.6933L12.844 16.7439C11.7996 16.1168 10.7322 15.3159 9.70918 14.2929C8.66551 13.2492 7.85417 12.1885 7.22292 11.1653L9.29987 9.11182C9.80232 8.61504 10.0054 7.89002 9.83399 7.20454L9.16158 4.51493C8.939 3.62459 8.13903 3 7.2213 3H4.00202ZM5.17874 5.89714C5.11805 5.55781 5.07773 5.25631 5.05104 5H7.2213L7.8937 7.68961L6.24476 9.31996C5.6543 8.00167 5.34263 6.81343 5.17874 5.89714ZM16.6592 18.4156C16.0552 18.238 15.398 18.0069 14.71 17.7063L16.3088 16.1075L19.0021 16.7808L19.002 18.9159C18.414 18.8393 17.6035 18.6934 16.6592 18.4156Z" fill="black"/>
<path d="M15.4612 5.38429C15.2534 5.02594 15.3755 4.56703 15.7338 4.35927C16.0922 4.15152 16.5511 4.27359 16.7588 4.63194L17.233 5.44984L17.7059 4.63425C17.9136 4.27591 18.3725 4.15383 18.7309 4.36159C19.0892 4.56934 19.2113 5.02826 19.0036 5.3866L18.5375 6.19045L19.4807 6.18874C19.8949 6.18799 20.2313 6.52317 20.232 6.93738C20.2328 7.35159 19.8976 7.68799 19.4834 7.68874L18.5321 7.69046L19.0069 8.50941C19.2146 8.86776 19.0925 9.32667 18.7342 9.53443C18.3759 9.74218 17.9169 9.62011 17.7092 9.26177L17.233 8.44047L16.7555 9.26408C16.5478 9.62242 16.0889 9.7445 15.7305 9.53674C15.3722 9.32899 15.2501 8.87007 15.4578 8.51173L15.9313 7.69517L15.0014 7.69685C14.5871 7.6976 14.2508 7.36242 14.25 6.94821C14.2493 6.534 14.5844 6.1976 14.9986 6.19685L15.9313 6.19516L15.4612 5.38429Z" fill="black"/>
</svg>

<svg xmlns="http://www.w3.org/2000/svg" width="24" height="24" fill="none" viewBox="0 0 24 24"><path fill="#000" fill-rule="evenodd" d="M4.002 3a1 1 0 0 0-.999.9555L4.002 4c-.999-.0445-.999-.0449-.999-.0445v.0015l-.0001.0019-.0002.0045-.0005.0126-.001.0391A6 6 0 0 0 3 4.1471a9 9 0 0 0 .0142.4661c.0216.3954.0739.9546.1958 1.636.2437 1.3626.7667 3.2206 1.8832 5.2355.7613 1.374 1.7965 2.8172 3.2018 4.2224 1.3358 1.3358 2.7393 2.3342 4.0906 3.0804a1 1 0 0 0 .2964.1601 18.47 18.47 0 0 0 3.4129 1.3868c1.123.3303 2.084.4964 2.7705.5801.3435.0419.6191.0633.813.0742.0969.0054.1735.0082.228.0097q.0409.001.065.0014l.0197.0002h.01c.0005 0 .0009 0 .0009-1l-.0009 1c.5523 0 1.0009-.4477 1.0009-1l.0001-3.2192a2 2 0 0 0-1.515-1.9403l-2.6932-.6733a2 2 0 0 0-1.8993.5261l-2.0506 2.0506a16.27 16.27 0 0 1-3.1348-2.451c-1.0437-1.0437-1.855-2.1044-2.4863-3.1276L9.3 9.1118a2 2 0 0 0 .534-1.9073L9.1617 4.515A2 2 0 0 0 7.2213 3zm1.1767 2.8971A12.4 12.4 0 0 1 5.051 5h2.1703l.6724 2.6896L6.2447 9.32c-.5904-1.3183-.902-2.5066-1.066-3.4229m11.4805 12.5185a16.5 16.5 0 0 1-1.9492-.7093l1.5988-1.5988 2.6933.6733-.0001 2.1351c-.588-.0766-1.3985-.2225-2.3428-.5003" clip-rule="evenodd"/><path fill="#000" d="M15.4612 5.3843a.75.75 0 1 1 1.2976-.7524l.4742.818.4729-.8157a.75.75 0 0 1 1.2977.7523l-.4661.804.9432-.0018a.75.75 0 0 1 .7513.7487.75.75 0 0 1-.7486.7513l-.9513.0018.4748.819a.7501.7501 0 0 1-1.2977.7523l-.4762-.8213-.4775.8236a.75.75 0 0 1-1.2977-.7523l.4735-.8166-.9299.0017a.75.75 0 0 1-.0028-1.5l.9327-.0017z"/></svg>
